X: 27344
T: Mist On The Mountain, The
R: waltz
M: 3/4
K: Adorian
"Am"A4 G2|Ae-e2 z2|e3 e g2|g2 e2 c2|"G"d6|d4 z2|
"C"e3 d e2|"G"d2 c2 A2|"Am"c2 d4|"D" d4 z2|
"C"e3 f g2|"G"d2 c2 z A|"Am" c3 c e2|"G"d3 c B2|"Am"A6-|A2 z4||
"Am"A A3 A2|A e4 e|"G"e2 B3 B|"Am" A4 BA|
"G"G3A G2|G d4 d|"Em" B3 A B2|"Am"A4 AB|
"C"c2 c2 Bc|"G"d d3 cd|"Am"e3 e g2|"D" B4 AG|
"Am"A e3 e2|"G"d3 c B2|"Am" A6-|A2 z4||

